evolvere-2-blue-mono/apps/16/xmind.svg

<?xml version="1.0" encoding="UTF-8"?>
<!-- Created with Inkscape (http://www.inkscape.org/) -->
<svg width="16" height="16" version="1.1" xmlns="http://www.w3.org/2000/svg" xmlns:cc="http://creativecommons.org/ns#" xmlns:dc="http://purl.org/dc/elements/1.1/" xmlns:rdf="http://www.w3.org/1999/02/22-rdf-syntax-ns#">
	<defs>
		<style id="current-color-scheme" type="text/css">.ColorScheme-Text {color:#090d11;}.ColorScheme-Background{color:#ffffff;}</style>
	</defs>
	<metadata>
		<rdf:RDF>
			<cc:Work rdf:about="">
				<dc:format>image/svg+xml</dc:format>
				<dc:type rdf:resource="http://purl.org/dc/dcmitype/StillImage"/>
			</cc:Work>
		</rdf:RDF>
	</metadata>
	<g transform="translate(3393.2 -1650.2)">
		<path id="h" class="ColorScheme-Background" transform="translate(-3393.2 1650.2)" d="m4.8691 2.5605c-0.11701 0.0026953-0.19962 0.018203-0.30664 0.033203-0.2853 0.041-0.70805 0.12565-1.5938 0.28125-0.9661 0.17-1.4658 0.24665-1.8438 0.34375-0.189 0.048-0.36355 0.1082-0.59375 0.25-0.2301 0.1417-0.4444 0.38405-0.5 0.46875-0.067 0.1013-0.21945 0.50545-0.21875 0.78125 7e-4 0.2757 0.0335 0.3724 0.0625 0.5v0.03125c0.2513 1.0291 0.943 1.9028 1.875 2.5312 0.2779 0.1875 0.72235 0.3355 1.0938 0.5-0.602 0.3143-1.3314 0.6113-1.7188 1-0.6346 0.6371-1.0312 1.5526-1.0312 2.4375-1e-4 0.1541-0.01175 0.30855 0.03125 0.53125 0.044 0.2227 0.1685 0.57445 0.5 0.84375 0.3315 0.2692 0.7139 0.3127 0.9375 0.3125 0.053 0 0.079-0.02825 0.125-0.03125h0.21875c0.057-0.01 0.1333-0.02125 0.1875-0.03125 0.087-0.016 0.7455-0.1259 1.4375-0.25 0.3547-0.064 0.70435-0.134 0.96875-0.1875 0.1322-0.027 0.24835-0.0415 0.34375-0.0625 0.095-0.022 0.03405 0 0.34375-0.125 0.1791-0.075 0.71715-0.49305 0.84375-0.84375 0.1267-0.3507 0.098-0.5316 0.125-0.8125 0.059-0.6099 0.03595-0.48945 0.21875-0.65625 0.1461-0.1335 0.22105-0.1867 0.71875-0.1875 0.7819 0 1.4606 0.30305 1.9062 0.78125 0.1981 0.2125 0.34 0.40165 0.5 0.84375 0.099 0.2726 0.14795 0.4985 0.40625 0.8125 0.2584 0.3141 0.8621 0.5624 1.1875 0.5625 0.2058-1e-4 0.17555 0.01 0.21875 0 0.043-0.01 0.10335-0.02325 0.15625-0.03125 0.1057-0.016 0.217-0.0375 0.375-0.0625 0.3159-0.052 0.74015-0.1155 1.1562-0.1875 0.8322-0.1439 1.5752-0.2914 1.9375-0.375 0.2773-0.063 0.66895-0.19245 0.96875-0.59375 0.052-0.07 0.27315-0.4934 0.28125-0.8125 0.01-0.319-0.0325-0.39145-0.0625-0.53125-0.1262-0.5654-0.32915-1.0247-0.65625-1.5-0.3136-0.456-0.6812-0.853-1.125-1.1875-0.2913-0.2194-0.7597-0.4245-1.125-0.625 0.045-0.029 0.11215-0.0315 0.15625-0.0625 0.4766-0.3398 0.85465-0.8545 1.0312-1.375 0.095-0.2821 0.142-0.704 0.125-1.125-0.013-0.3146-0.013-0.56645-0.125-0.90625-0.1119-0.3399-0.4605-0.80175-0.8125-0.96875-0.2605-0.123-0.63885-0.16555-0.90625-0.15625-0.2674 0.01-0.50965 0.03575-0.84375 0.09375-0.2944 0.052-0.9485 0.1654-1.4375 0.25-0.4663 0.081-0.74355 0.13245-1.0312 0.21875-0.1439 0.043-0.2877 0.099-0.5 0.25-0.2123 0.1507-0.45745 0.4546-0.53125 0.6875-0.155 0.4887-0.03925 0.4801-0.03125 0.5625 0.01 0.083 0.01925 0.1201 0.03125 0.1875 0.024 0.1347 0.05275 0.2879 0.09375 0.4375-0.00836-0.017437-0.074525 0-0.40625 0-0.2888 0-0.3071-0.03005-0.5625-0.15625-0.4193-0.2066-0.70445-0.4968-0.96875-1.25-0.079-0.2252-0.1488-0.39735-0.25-0.59375-0.1012-0.1963-0.3014-0.48295-0.625-0.65625-0.042-0.022-0.4301-0.1807-0.625-0.1875-0.048725-0.0025-0.091856-0.0028516-0.13086-0.0019531zm0.099609 1.2207c0.041741 0.00147 0.0405 0.0195 0.0625 0.03125 0.0943 0.0505 0.1666 0.17815 0.3125 0.59375 0.3354 0.9558 0.8393 1.5811 1.5625 1.9375 0.4006 0.1969 0.6962 0.25 1.125 0.25 0.8188 0 1.4048-0.24035 1.5938-0.65625 0.0957-0.2104 0.10215-0.34695-0.03125-0.84375-0.064-0.2371-0.10675-0.459-0.09375-0.5 0.0407-0.1284 0.2097-0.18535 1.125-0.34375 0.4887-0.0846 1.1372-0.197 1.4375-0.25 0.6348-0.11 0.8264-0.11325 1-0.03125 0.1878 0.0891 0.25925 0.29635 0.28125 0.84375 0.016 0.3979 0.0095 0.4747-0.0625 0.6875-0.2219 0.6538-0.7161 1.0134-1.875 1.3438-0.5959 0.1699-0.75 0.2302-0.75 0.375 0 0.1309 0.1209 0.22515 1.0625 0.65625 0.9174 0.42 1.4133 0.68335 1.875 1.0312 0.3251 0.245 0.71355 0.62605 0.90625 0.90625 0.1848 0.2685 0.39875 0.78005 0.46875 1.0938 0.059 0.2712 0.03775 0.282-0.03125 0.375-0.049 0.0656-0.14115 0.093-0.28125 0.125-0.3979 0.0918-3.4293 0.625-3.5625 0.625-0.2158 0-0.29915-0.12525-0.46875-0.59375-0.1963-0.5424-0.4372-0.9144-0.75-1.25-0.6917-0.7422-1.6908-1.1562-2.7812-1.1562-0.6797 0.0012-1.151 0.1524-1.5312 0.5-0.374 0.3417-0.52275 0.7049-0.59375 1.4375-0.0525 0.5388-0.0826 0.58625-0.25 0.65625-0.0731 0.0306-0.71275 0.15695-1.4062 0.28125-0.6935 0.1244-1.3252 0.26025-1.4375 0.28125h-0.03125c-0.501 0.0953-0.5625 0.03295-0.5625-0.46875 0-0.6499 0.1992-1.1036 0.6875-1.5938 0.4831-0.4848 1.0766-0.8253 2.4062-1.375 0.374-0.1546 0.663-0.3 0.75-0.375 0.131-0.1131 0.166-0.12975 0.125-0.21875-0.0661-0.145-0.3449-0.27225-1.1875-0.59375-0.7754-0.2959-1.3184-0.57445-1.625-0.78125-0.7592-0.512-1.2306-1.093-1.4062-1.8125-0.054-0.2361-0.055-0.26075 0-0.34375 0.1229-0.1875 0.1953-0.223 2.125-0.5625 1.3286-0.2334 1.6873-0.28565 1.8125-0.28125z" style="fill-opacity:.5;fill:currentColor"/>
		<path id="e" class="ColorScheme-Text" transform="translate(-3393.2 1650.2)" d="m4.9629 3.7812c-0.12522-0.0044-0.46832 0.055662-1.7969 0.28906-1.9297 0.3395-2.0021 0.35742-2.125 0.54492-0.055 0.083-0.054 0.11351 0 0.34961 0.1757 0.7195 0.62361 1.3103 1.3828 1.8223 0.3066 0.2068 0.87694 0.47168 1.6523 0.76758 0.8426 0.3215 1.098 0.45266 1.1641 0.59766 0.041 0.089 0.031391 0.1076-0.099609 0.2207-0.087 0.075-0.38381 0.22235-0.75781 0.37695-1.3297 0.5497-1.9349 0.89606-2.418 1.3809-0.4883 0.4902-0.67969 0.93408-0.67969 1.584 0 0.5017 0.071266 0.5621 0.57227 0.4668h0.00391c0.1123-0.021 0.77134-0.14122 1.4648-0.26562 0.6935-0.1243 1.3214-0.25065 1.3945-0.28125 0.1674-0.07 0.18969-0.12917 0.24219-0.66797 0.071-0.7326 0.21975-1.0919 0.59375-1.4336 0.3802-0.3476 0.85155-0.50271 1.5312-0.50391 1.0905 0 2.1091 0.41991 2.8008 1.1621 0.3128 0.3356 0.53026 0.71151 0.72656 1.2539 0.1696 0.4685 0.26662 0.58594 0.48242 0.58594 0.1332 0 3.1744-0.52734 3.5723-0.61914 0.1401-0.032 0.22834-0.07698 0.27734-0.14258 0.069-0.093 0.06876-0.10771 0.0098-0.37891-0.07-0.3137-0.2859-0.80962-0.4707-1.0781-0.1927-0.2802-0.55771-0.64758-0.88281-0.89258-0.4617-0.3479-0.95565-0.62297-1.873-1.043-0.9416-0.4311-1.0742-0.51168-1.0742-0.64258 0-0.1448 0.14824-0.22463 0.74414-0.39453 1.1589-0.3304 1.6511-0.68018 1.873-1.334 0.072-0.2128 0.08045-0.30132 0.06445-0.69922-0.022-0.5474-0.08759-0.74098-0.27539-0.83008-0.1736-0.082-0.37301-0.074844-1.0078 0.035156-0.3003 0.053-0.94685 0.16345-1.4355 0.24805-0.9153 0.1584-1.0804 0.20754-1.1211 0.33594-0.013 0.041 0.02975 0.26876 0.09375 0.50586 0.1334 0.4968 0.14062 0.63335 0.044922 0.84375-0.1889 0.4159-0.78862 0.66211-1.6074 0.66211-0.4288 0-0.70878-0.066772-1.1094-0.26367-0.7232-0.3564-1.233-0.98756-1.5684-1.9434-0.1459-0.4156-0.21429-0.54716-0.30859-0.59766-0.022-0.01175-0.038337-0.020019-0.080078-0.021484z" style="fill-opacity:.75;fill:currentColor"/>
	</g>
</svg>

<?xml version="1.0" encoding="UTF-8" standalone="no"?>
<!-- Created with Inkscape (http://www.inkscape.org/) -->

<svg
   xmlns:dc="http://purl.org/dc/elements/1.1/"
   xmlns:cc="http://creativecommons.org/ns#"
   xmlns:rdf="http://www.w3.org/1999/02/22-rdf-syntax-ns#"
   xmlns:svg="http://www.w3.org/2000/svg"
   xmlns="http://www.w3.org/2000/svg"
   xmlns:sodipodi="http://sodipodi.sourceforge.net/DTD/sodipodi-0.dtd"
   xmlns:inkscape="http://www.inkscape.org/namespaces/inkscape"
   width="16.000031"
   height="16.000029"
   id="svg27665"
   version="1.1"
   inkscape:version="0.48.3.1 r9886"
   sodipodi:docname="xmind.svg">
  <defs
     id="defs27667" />
  <sodipodi:namedview
     id="base"
     pagecolor="#ffffff"
     bordercolor="#666666"
     borderopacity="1.0"
     inkscape:pageopacity="0.0"
     inkscape:pageshadow="2"
     inkscape:zoom="44.8"
     inkscape:cx="7.4325049"
     inkscape:cy="8.2572391"
     inkscape:document-units="px"
     inkscape:current-layer="layer1"
     showgrid="true"
     inkscape:window-width="1920"
     inkscape:window-height="1023"
     inkscape:window-x="-10"
     inkscape:window-y="35"
     inkscape:window-maximized="1"
     inkscape:snap-bbox="true"
     inkscape:bbox-paths="true"
     inkscape:bbox-nodes="true"
     inkscape:snap-bbox-edge-midpoints="true"
     inkscape:snap-bbox-midpoints="true"
     inkscape:object-paths="true"
     inkscape:snap-intersection-paths="true"
     inkscape:object-nodes="true"
     inkscape:snap-smooth-nodes="true"
     inkscape:snap-midpoints="true"
     inkscape:snap-object-midpoints="true"
     inkscape:snap-center="true"
     inkscape:snap-global="true"
     showguides="false"
     inkscape:guide-bbox="true"
     fit-margin-top="0"
     fit-margin-left="0"
     fit-margin-right="0"
     fit-margin-bottom="0"
     inkscape:showpageshadow="false">
    <sodipodi:guide
       orientation="0,1"
       position="-1494.2276,523.03618"
       id="guide4179" />
    <sodipodi:guide
       orientation="1,0"
       position="-1492.0847,520.17904"
       id="guide4181" />
    <inkscape:grid
       type="xygrid"
       id="grid4279"
       empspacing="5"
       visible="true"
       enabled="true"
       snapvisiblegridlinesonly="true"
       originx="6.6056504e-05px"
       originy="592.00001px" />
  </sodipodi:namedview>
  <metadata
     id="metadata27670">
    <rdf:RDF>
      <cc:Work
         rdf:about="">
        <dc:format>image/svg+xml</dc:format>
        <dc:type
           rdf:resource="http://purl.org/dc/dcmitype/StillImage" />
        <dc:title />
      </cc:Work>
    </rdf:RDF>
  </metadata>
  <g
     inkscape:label="Camada 1"
     inkscape:groupmode="layer"
     id="layer1"
     transform="translate(3393.2465,-1650.2411)">
    <path
       style="color:#000000;fill:#27303a;fill-opacity:0.753280819999999968;fill-rule:nonzero;stroke:none;stroke-width:2.10179186;marker:none;visibility:visible;display:inline;overflow:visible;enable-background:accumulate"
       d="m -3391.3848,1662.4224 c 0.1123,-0.021 0.7716,-0.1406 1.4651,-0.265 0.6935,-0.1243 1.3206,-0.251 1.3937,-0.2816 0.1674,-0.07 0.189,-0.1299 0.2415,-0.6687 0.071,-0.7326 0.2197,-1.0909 0.5937,-1.4326 0.3802,-0.3476 0.853,-0.5031 1.5327,-0.5043 1.0905,0 2.1081,0.4206 2.7998,1.1628 0.3128,0.3356 0.5303,0.7105 0.7266,1.2529 0.1696,0.4685 0.2661,0.5858 0.4819,0.5858 0.1332,0 3.1753,-0.5262 3.5732,-0.618 0.1401,-0.032 0.228,-0.078 0.277,-0.1436 0.069,-0.093 0.069,-0.1071 0.01,-0.3783 -0.07,-0.3137 -0.2867,-0.809 -0.4715,-1.0775 -0.1927,-0.2802 -0.5564,-0.649 -0.8815,-0.894 -0.4617,-0.3479 -0.9557,-0.623 -1.8731,-1.043 -0.9416,-0.4311 -1.0755,-0.5111 -1.0755,-0.642 0,-0.1448 0.1496,-0.2239 0.7455,-0.3938 1.1589,-0.3304 1.6505,-0.6809 1.8724,-1.3347 0.072,-0.2128 0.08,-0.3005 0.064,-0.6984 -0.022,-0.5474 -0.086,-0.7421 -0.2738,-0.8312 -0.1736,-0.082 -0.3746,-0.075 -1.0094,0.035 -0.3003,0.053 -0.9459,0.1646 -1.4346,0.2492 -0.9153,0.1584 -1.0797,0.2077 -1.1204,0.3361 -0.013,0.041 0.028,0.2689 0.092,0.506 0.1334,0.4968 0.1407,0.6319 0.045,0.8423 -0.1889,0.4159 -0.7882,0.6632 -1.607,0.6632 -0.4288,0 -0.7086,-0.067 -1.1092,-0.2639 -0.7232,-0.3564 -1.2331,-0.9884 -1.5685,-1.9442 -0.1459,-0.4156 -0.2136,-0.547 -0.3079,-0.5975 -0.088,-0.047 -0.106,-0.044 -1.8774,0.2672 -1.9297,0.3395 -2.0026,0.3582 -2.1255,0.5457 -0.055,0.083 -0.054,0.1138 0,0.3499 0.1757,0.7195 0.6234,1.3092 1.3826,1.8212 0.3066,0.2068 0.8772,0.4719 1.6526,0.7678 0.8426,0.3215 1.0977,0.4525 1.1638,0.5975 0.041,0.089 0.032,0.1075 -0.099,0.2206 -0.087,0.075 -0.3833,0.2228 -0.7573,0.3774 -1.3297,0.5497 -1.9358,0.8955 -2.4189,1.3803 -0.4883,0.4902 -0.6792,0.9359 -0.6792,1.5858 0,0.5017 0.072,0.5604 0.573,0.4651 z"
       id="path3026"
       inkscape:connector-curvature="0" />
    <path
       style="font-size:medium;font-style:normal;font-variant:normal;font-weight:normal;font-stretch:normal;text-indent:0;text-align:start;text-decoration:none;line-height:normal;letter-spacing:normal;word-spacing:normal;text-transform:none;direction:ltr;block-progression:tb;writing-mode:lr-tb;text-anchor:start;baseline-shift:baseline;color:#000000;fill:#f1f3f5;fill-opacity:0.90288714000000003;fill-rule:nonzero;stroke:none;stroke-width:2;marker:none;visibility:visible;display:inline;overflow:visible;enable-background:accumulate;font-family:Sans;-inkscape-font-specification:Sans"
       d="M 5 2.5625 C 4.8051 2.5525 4.7052 2.57375 4.5625 2.59375 C 4.2772 2.63475 3.85445 2.7194 2.96875 2.875 C 2.00265 3.045 1.5029 3.12165 1.125 3.21875 C 0.936 3.26675 0.76145 3.32695 0.53125 3.46875 C 0.30115 3.61045 0.08685 3.8528 0.03125 3.9375 C -0.03575 4.0388 -0.1882 4.44295 -0.1875 4.71875 C -0.1868 4.99445 -0.154 5.09115 -0.125 5.21875 L -0.125 5.25 C 0.1263 6.2791 0.818 7.15275 1.75 7.78125 C 2.0279 7.96875 2.47235 8.11675 2.84375 8.28125 C 2.24175 8.59555 1.5124 8.89255 1.125 9.28125 C 0.4904 9.91835 0.09375 10.83385 0.09375 11.71875 C 0.09365 11.87285 0.082 12.0273 0.125 12.25 C 0.169 12.4727 0.2935 12.82445 0.625 13.09375 C 0.9565 13.36295 1.3389 13.40645 1.5625 13.40625 C 1.6155 13.40625 1.6415 13.378 1.6875 13.375 L 1.90625 13.375 C 1.96325 13.365 2.03955 13.35375 2.09375 13.34375 C 2.18075 13.32775 2.83925 13.21785 3.53125 13.09375 C 3.88595 13.02975 4.2356 12.95975 4.5 12.90625 C 4.6322 12.87925 4.74835 12.86475 4.84375 12.84375 C 4.93875 12.82175 4.8778 12.84375 5.1875 12.71875 C 5.3666 12.64375 5.90465 12.2257 6.03125 11.875 C 6.15795 11.5243 6.12925 11.3434 6.15625 11.0625 C 6.21525 10.4526 6.1922 10.57305 6.375 10.40625 C 6.5211 10.27275 6.59605 10.21955 7.09375 10.21875 C 7.87565 10.21875 8.5543 10.5218 9 11 C 9.1981 11.2125 9.34 11.40165 9.5 11.84375 C 9.599 12.11635 9.64795 12.34225 9.90625 12.65625 C 10.16465 12.97035 10.76835 13.21865 11.09375 13.21875 C 11.29955 13.21865 11.2693 13.22875 11.3125 13.21875 C 11.3555 13.20875 11.41585 13.1955 11.46875 13.1875 C 11.57445 13.1715 11.68575 13.15 11.84375 13.125 C 12.15965 13.073 12.5839 13.0095 13 12.9375 C 13.8322 12.7936 14.5752 12.6461 14.9375 12.5625 C 15.2148 12.4995 15.60645 12.37005 15.90625 11.96875 C 15.95825 11.89875 16.1794 11.47535 16.1875 11.15625 C 16.1975 10.83725 16.155 10.7648 16.125 10.625 C 15.9988 10.0596 15.79585 9.6003 15.46875 9.125 C 15.15515 8.669 14.78755 8.272 14.34375 7.9375 C 14.05245 7.7181 13.58405 7.513 13.21875 7.3125 C 13.26375 7.2835 13.3309 7.281 13.375 7.25 C 13.8516 6.9102 14.22965 6.3955 14.40625 5.875 C 14.50125 5.5929 14.54825 5.171 14.53125 4.75 C 14.51825 4.4354 14.51825 4.18355 14.40625 3.84375 C 14.29435 3.50385 13.94575 3.042 13.59375 2.875 C 13.33325 2.752 12.9549 2.70945 12.6875 2.71875 C 12.4201 2.72875 12.17785 2.7545 11.84375 2.8125 C 11.54935 2.8645 10.89525 2.9779 10.40625 3.0625 C 9.93995 3.1435 9.6627 3.19495 9.375 3.28125 C 9.2311 3.32425 9.0873 3.38025 8.875 3.53125 C 8.6627 3.68195 8.41755 3.98585 8.34375 4.21875 C 8.18875 4.70745 8.3045 4.69885 8.3125 4.78125 C 8.3225 4.86425 8.33175 4.90135 8.34375 4.96875 C 8.36775 5.10345 8.3965 5.25665 8.4375 5.40625 C 8.4291422 5.3888125 8.362975 5.40625 8.03125 5.40625 C 7.74245 5.40625 7.72415 5.3762 7.46875 5.25 C 7.04945 5.0434 6.7643 4.7532 6.5 4 C 6.421 3.7748 6.3512 3.60265 6.25 3.40625 C 6.1488 3.20995 5.9486 2.9233 5.625 2.75 C 5.583 2.728 5.1949 2.5693 5 2.5625 z M 4.96875 3.78125 C 5.0104906 3.7827156 5.00925 3.80075 5.03125 3.8125 C 5.12555 3.863 5.19785 3.99065 5.34375 4.40625 C 5.67915 5.36205 6.18305 5.98735 6.90625 6.34375 C 7.30685 6.54065 7.60245 6.59375 8.03125 6.59375 C 8.85005 6.59375 9.4361 6.3534 9.625 5.9375 C 9.7207 5.7271 9.72715 5.59055 9.59375 5.09375 C 9.52975 4.85665 9.487 4.63475 9.5 4.59375 C 9.5407 4.46535 9.7097 4.4084 10.625 4.25 C 11.1137 4.1654 11.7622 4.053 12.0625 4 C 12.6973 3.89 12.8889 3.88675 13.0625 3.96875 C 13.2503 4.05785 13.32175 4.2651 13.34375 4.8125 C 13.35975 5.2104 13.35325 5.2872 13.28125 5.5 C 13.05935 6.1538 12.56515 6.51335 11.40625 6.84375 C 10.81035 7.01365 10.65625 7.07395 10.65625 7.21875 C 10.65625 7.34965 10.77715 7.4439 11.71875 7.875 C 12.63615 8.295 13.13205 8.55835 13.59375 8.90625 C 13.91885 9.15125 14.3073 9.5323 14.5 9.8125 C 14.6848 10.081 14.89875 10.59255 14.96875 10.90625 C 15.02775 11.17745 15.0065 11.18825 14.9375 11.28125 C 14.8885 11.34685 14.79635 11.37425 14.65625 11.40625 C 14.25835 11.49805 11.22695 12.03125 11.09375 12.03125 C 10.87795 12.03125 10.7946 11.906 10.625 11.4375 C 10.4287 10.8951 10.1878 10.5231 9.875 10.1875 C 9.1833 9.4453 8.18425 9.03125 7.09375 9.03125 C 6.41405 9.03245 5.9427 9.18365 5.5625 9.53125 C 5.1885 9.87295 5.03975 10.23615 4.96875 10.96875 C 4.91625 11.50755 4.88615 11.555 4.71875 11.625 C 4.64565 11.6556 4.006 11.78195 3.3125 11.90625 C 2.619 12.03065 1.9873 12.1665 1.875 12.1875 L 1.84375 12.1875 C 1.34275 12.2828 1.28125 12.22045 1.28125 11.71875 C 1.28125 11.06885 1.48045 10.6152 1.96875 10.125 C 2.45185 9.6402 3.0453 9.2997 4.375 8.75 C 4.749 8.5954 5.038 8.45 5.125 8.375 C 5.256 8.2619 5.291 8.24525 5.25 8.15625 C 5.1839 8.01125 4.9051 7.884 4.0625 7.5625 C 3.2871 7.2666 2.7441 6.98805 2.4375 6.78125 C 1.6783 6.26925 1.20695 5.68825 1.03125 4.96875 C 0.97725 4.73265 0.97625 4.708 1.03125 4.625 C 1.15415 4.4375 1.22655 4.402 3.15625 4.0625 C 4.4848 3.8291 4.8435281 3.7768531 4.96875 3.78125 z "
       transform="translate(-3393.2465,1650.2411)"
       id="path3022" />
  </g>
</svg>
